X:1     %Music
T:Ny Kirree Fo-Snaightey (Isle of Man)
B:Broadwood, L, 1893, English County Songs, London, Leadenhall Press
S:Tune from Elizabeth Cookson, Words from Notes and Queries, Ser 4, ii
Z:Lucy Broadwood
F:http://www.folkinfo.org/songs
M:3/4     %Meter
L:1/8     %
K:Bb
(G3/2A/) |B2 D2 (D3/2C/) |D2 F2 (G3/2F/) |D2 d2 ^c2 | d4 
w:One_ ve-ry keen_ win-ter and_ spring-time of frost, 
(d3/2=e/) |f2 =e2 (f3/2d/) |(d3/2c/) A2 F2 |(G3/2E/) (D3/2C/) (D3/2^F/) | G4 
w:The_ young lambs were_ saved_ and the old_ sheep_ were_ lost;
(G3/2A/) |(B3/2c/) d2 B2 |(cA) F2 G3/2A/ |(B3/2c/) d2 =e2 | f4
w: Oh!_ rise_ now my shep--herds to the moun--tains up go!
 G3/2 A/ |(B3/2c/) d2 B2 |(c3/2A/) F2 (B3/2A/) |(G3/2F/) (D3/2C/) (D3/2^F/) | G4  |]
w: For the sheep_ are all bur--ied deep_ un--der_ the_ snow 